tools/download-figma-icons/icons/outlined-large/freedom.svg

<svg width="64" height="64" viewBox="0 0 64 64" fill="none" xmlns="http://www.w3.org/2000/svg">
<path d="M13.6494 63.9999C13.1793 63.9999 12.7091 63.8298 12.3291 63.5097C10.8687 62.2495 5.91755 57.7484 3.23692 52.7072C2.97685 52.2271 2.92684 51.647 3.10688 51.1268C3.27692 50.6067 3.66702 50.1666 4.16713 49.9266L16.5901 44.0052C8.84824 39.254 -0.654001 27.9514 6.16761 10.4473C6.41766 9.80711 6.95779 9.347 7.62795 9.19696C8.29811 9.04693 8.98827 9.24698 9.47838 9.72709C11.6489 11.8576 22.9916 22.16 36.3747 19.1893C36.1047 16.3787 36.2547 10.2872 41.806 7.04646C45.5169 4.87595 48.7476 5.45608 50.7881 6.33629C53.9389 7.67661 56.5395 10.7173 57.5197 14.1681L60.5404 17.2289C60.9405 17.6289 61.1505 18.1891 61.1205 18.7492C61.0905 19.3093 60.8305 19.8495 60.3904 20.2096L56.5095 23.4503C56.5095 23.4503 55.3192 24.4806 55.2091 27.4713C54.9791 34.1328 53.5388 40.0942 50.8181 45.6856C47.2073 53.0973 35.5145 59.8689 22.7415 58.1285L14.7996 63.6298C14.4496 63.8698 14.0395 63.9899 13.6394 63.9899L13.6494 63.9999ZM6.38766 52.1871C8.62818 55.938 12.199 59.3588 13.7194 60.7391L22.0113 54.9877L22.6015 55.0778C34.2542 56.9082 44.9167 50.9468 48.1175 44.3752C50.6481 39.174 51.9884 33.6127 52.2084 27.3712C52.3585 23.1402 54.2589 21.3998 54.679 21.0698L57.6497 18.5792L54.8091 15.6885L54.709 15.2884C54.0389 12.5578 52.0384 10.1272 49.6078 9.08694C47.5774 8.22674 45.3968 8.41678 43.3063 9.63707C38.7053 12.3177 39.1754 17.959 39.4354 19.6194C39.5955 20.6497 38.9553 21.6299 37.9451 21.89C24.2419 25.4708 12.4891 16.4987 8.45814 12.8778C1.23644 33.7427 19.7108 42.3348 20.521 42.6948L23.4717 44.0252L6.37765 52.1771L6.38766 52.1871Z" fill="black"/>
<path d="M38.045 14.918C37.5049 14.7679 25.142 11.4071 16.73 3.67532C15.7498 5.97586 14.1994 10.3069 14.4195 14.4979L11.4188 14.6579C11.1187 8.94656 13.5393 3.29523 14.5895 1.12472C14.8796 0.534577 15.4297 0.124481 16.0699 0.0244571C16.71 -0.0755664 17.3802 0.134483 17.8403 0.594591C25.6521 8.42644 38.6752 11.9873 38.8052 12.0273L38.025 14.928L38.045 14.918Z" fill="black"/>
<path d="M24.8918 15.7482C24.7118 15.7482 24.5218 15.7182 24.3417 15.6382C17.3501 12.8575 12.959 8.75659 12.779 8.58655C12.1788 8.01641 12.1488 7.06619 12.719 6.46605C13.2891 5.8659 14.2293 5.8359 14.8395 6.40603C14.8795 6.44604 19.0205 10.2969 25.452 12.8576C26.2222 13.1676 26.6022 14.0378 26.2922 14.808C26.0621 15.3981 25.492 15.7582 24.9018 15.7582L24.8918 15.7482Z" fill="black"/>
<path d="M24.2119 30.582C24.2119 30.582 24.1419 30.582 24.1019 30.582C14.1095 29.8618 4.89737 24.1404 4.50728 23.9004C3.80711 23.4603 3.59706 22.5301 4.03717 21.8299C4.47727 21.1297 5.40749 20.9197 6.10765 21.3598C6.19767 21.4198 15.0898 26.9311 24.3219 27.5913C25.1521 27.6513 25.7723 28.3714 25.7123 29.1916C25.6523 29.9818 25.0021 30.582 24.2219 30.582H24.2119Z" fill="black"/>
<path d="M19.9108 38.7837C19.8508 38.7837 19.7807 38.7837 19.7207 38.7737C11.0187 37.6634 8.138 35.5829 7.83793 35.3529C7.18777 34.8427 7.06775 33.9025 7.57787 33.2524C8.07798 32.6022 9.0082 32.4822 9.66836 32.9723C9.74838 33.0323 12.349 34.8027 20.1008 35.803C20.921 35.913 21.5011 36.6632 21.4011 37.4834C21.3011 38.2435 20.6609 38.7937 19.9108 38.7937V38.7837Z" fill="black"/>
<path d="M25.142 47.6055C25.052 47.6055 24.972 47.6055 24.882 47.5855C22.9115 47.2354 19.6107 45.605 19.2406 45.415C18.5005 45.0449 18.2004 44.1447 18.5705 43.4045C18.9406 42.6643 19.8408 42.3643 20.5809 42.7344C21.4812 43.1845 24.0918 44.3947 25.4021 44.6248C26.2223 44.7648 26.7624 45.545 26.6224 46.3652C26.4923 47.0954 25.8622 47.6055 25.142 47.6055Z" fill="black"/>
<path d="M8.33809 58.8682C7.81797 58.8682 7.31785 58.5981 7.03778 58.118C6.62769 57.3979 6.86774 56.4877 7.58791 56.0676L14.8196 51.8966C15.5298 51.4865 16.45 51.7265 16.8701 52.4467C17.2802 53.1669 17.0401 54.0771 16.32 54.4972L9.08827 58.6682C8.84821 58.8082 8.59815 58.8682 8.33809 58.8682Z" fill="black"/>
<path d="M44.5267 17.3089C44.2567 17.3089 43.9866 17.2389 43.7365 17.0789C43.0364 16.6388 42.8163 15.7186 43.2564 15.0084C43.9666 13.8781 45.0169 13.188 46.2171 13.078C47.5274 12.9579 48.8878 13.5381 49.888 14.6283C50.4481 15.2385 50.4081 16.1887 49.788 16.7488C49.1778 17.309 48.2276 17.2689 47.6675 16.6588C47.3174 16.2687 46.8673 16.0487 46.4872 16.0787C46.3972 16.0787 46.1071 16.1087 45.807 16.6088C45.527 17.0689 45.0369 17.319 44.5367 17.319L44.5267 17.3089Z" fill="black"/>
</svg>

<svg xmlns="http://www.w3.org/2000/svg" width="64" height="64" fill="none" viewBox="0 0 64 64"><path fill="currentColor" d="M13.65 64c-.47 0-.94-.17-1.32-.49-1.461-1.26-6.412-5.762-9.093-10.803a1.98 1.98 0 0 1-.13-1.58c.17-.52.56-.96 1.06-1.2l12.423-5.922C8.848 39.254-.654 27.951 6.168 10.447c.25-.64.79-1.1 1.46-1.25s1.36.05 1.85.53c2.17 2.13 13.514 12.433 26.897 9.462-.27-2.81-.12-8.902 5.431-12.143 3.71-2.17 6.942-1.59 8.982-.71 3.15 1.34 5.752 4.381 6.732 7.832l3.02 3.06c.4.4.61.961.58 1.521s-.29 1.1-.73 1.46l-3.88 3.241s-1.19 1.03-1.3 4.021c-.23 6.662-1.671 12.623-4.392 18.215-3.61 7.411-15.303 14.183-28.076 12.443l-7.942 5.5c-.35.24-.76.36-1.16.36zM6.387 52.187c2.24 3.751 5.811 7.172 7.331 8.552l8.292-5.751.59.09c11.653 1.83 22.316-4.131 25.517-10.703 2.53-5.201 3.87-10.762 4.09-17.004.15-4.23 2.05-5.971 2.471-6.301l2.97-2.49-2.84-2.891-.1-.4c-.67-2.731-2.67-5.162-5.101-6.202-2.03-.86-4.211-.67-6.302.55-4.6 2.68-4.13 8.322-3.87 9.982.16 1.03-.48 2.01-1.49 2.271-13.704 3.58-25.457-5.391-29.488-9.012C1.235 33.743 19.71 42.335 20.52 42.695l2.95 1.33-17.093 8.152z"/><path fill="currentColor" d="M38.045 14.918c-.54-.15-12.903-3.51-21.315-11.243-.98 2.3-2.53 6.632-2.31 10.823l-3.001.16c-.3-5.711 2.12-11.363 3.17-13.533.29-.59.84-1 1.48-1.1a2.07 2.07 0 0 1 1.771.57c7.812 7.831 20.835 11.392 20.965 11.432l-.78 2.901z"/><path fill="currentColor" d="M24.892 15.748c-.18 0-.37-.03-.55-.11-6.992-2.78-11.383-6.881-11.563-7.051a1.5 1.5 0 0 1 2.06-2.181c.04.04 4.181 3.89 10.613 6.452a1.5 1.5 0 0 1 .84 1.95c-.23.59-.8.95-1.39.95zm-.68 14.834h-.11C14.11 29.862 4.897 24.14 4.507 23.9c-.7-.44-.91-1.37-.47-2.07s1.37-.91 2.07-.47c.09.06 8.983 5.571 18.215 6.231a1.5 1.5 0 0 1 1.39 1.6c-.06.79-.71 1.391-1.49 1.391zm-4.302 8.202c-.06 0-.13 0-.19-.01-8.701-1.11-11.582-3.191-11.882-3.421-.65-.51-.77-1.45-.26-2.1.5-.65 1.43-.77 2.09-.28.08.06 2.681 1.83 10.433 2.83.82.11 1.4.86 1.3 1.68a1.5 1.5 0 0 1-1.49 1.31zm5.232 8.822c-.09 0-.17 0-.26-.02-1.97-.35-5.271-1.981-5.641-2.171a1.499 1.499 0 0 1 1.34-2.68c.9.45 3.51 1.66 4.821 1.89a1.5 1.5 0 0 1-.26 2.98M8.338 58.868c-.52 0-1.02-.27-1.3-.75-.41-.72-.17-1.63.55-2.05l7.232-4.171c.71-.41 1.63-.17 2.05.55.41.72.17 1.63-.55 2.05l-7.232 4.171c-.24.14-.49.2-.75.2m36.189-41.559c-.27 0-.54-.07-.79-.23-.7-.44-.92-1.36-.48-2.07.71-1.13 1.76-1.821 2.96-1.931 1.31-.12 2.67.46 3.671 1.55.56.61.52 1.56-.1 2.12a1.5 1.5 0 0 1-2.12-.09c-.35-.39-.8-.61-1.18-.58-.09 0-.38.03-.681.53-.28.46-.77.711-1.27.711z"/></svg>
